material/.icons/material/bookmark-check-outline.svg

<svg xmlns="http://www.w3.org/2000/svg" viewBox="0 0 24 24"><path d="M9.47 9.65l-1.41 1.42L11 14l5.19-5.18-1.41-1.42L11 11.18M17 3H7c-1.1 0-2 .9-2 2v16l7-3 7 3V5c0-1.1-.9-2-2-2m0 15l-5-2.18L7 18V5h10z"/></svg>

<?xml version="1.0" encoding="UTF-8"?><!DOCTYPE svg PUBLIC "-//W3C//DTD SVG 1.1//EN" "http://www.w3.org/Graphics/SVG/1.1/DTD/svg11.dtd"><svg xmlns="http://www.w3.org/2000/svg" xmlns:xlink="http://www.w3.org/1999/xlink" version="1.1" id="mdi-bookmark-check-outline" width="24" height="24" viewBox="0 0 24 24"><path d="M9.47 9.65L8.06 11.07L11 14L16.19 8.82L14.78 7.4L11 11.18M17 3H7C5.9 3 5 3.9 5 5L5 21L12 18L19 21V5C19 3.9 18.1 3 17 3M17 18L12 15.82L7 18V5H17Z" /></svg>
